mimetypes/scalable/application-x-scribus.svg

<?xml version="1.0" standalone="no"?><!-- Generator: Gravit.io --><svg xmlns="http://www.w3.org/2000/svg" xmlns:xlink="http://www.w3.org/1999/xlink" style="isolation:isolate" viewBox="0 0 256 256" width="256" height="256"><switch><g><g id="application-mimetype"><g opacity="0.2"><path d=" M 78.924321 15.500025 C 43.627596 15.500025 39.829708 19.125398 40.002695 54.49353 L 40.002695 127.500014 L 40.002695 200.506441 C 39.829708 235.874573 43.627596 239.500004 78.924321 239.500004 L 177.081083 239.500004 C 212.377805 239.500004 216.002702 235.875035 216.002702 200.506441 L 216.002702 127.500014 L 216.002702 54.49353 C 216.002702 19.124994 212.377805 15.500025 177.081083 15.500025 L 78.924321 15.500025 Z " id="path1163" fill="none" vector-effect="non-scaling-stroke" stroke-width="4" stroke="rgb(0,0,0)" stroke-linejoin="miter" stroke-linecap="butt" stroke-miterlimit="4"/></g><defs><filter id="NwyCmq2kc0EBNsgi340LeusrltlL7pji" x="-200%" y="-200%" width="400%" height="400%" filterUnits="objectBoundingBox" color-interpolation-filters="sRGB"><feGaussianBlur xmlns="http://www.w3.org/2000/svg" stdDeviation="2.120027"/></filter></defs><g opacity="0.1" filter="url(#NwyCmq2kc0EBNsgi340LeusrltlL7pji)"><path d=" M 78.924315 16.5 C 43.627592 16.5 39.82971 20.125416 40.002699 55.493531 L 40.002699 128.5 L 40.002699 201.50647 C 39.82971 236.874573 43.627592 240.500001 78.924315 240.500001 L 177.081083 240.500001 C 212.377806 240.500001 215.084425 236.863068 216.002699 201.50647 L 216.002699 128.5 L 216.002699 55.493531 C 216.002699 20.124997 212.377806 16.5 177.081083 16.5 L 78.924315 16.5 Z " id="shadow" fill="rgb(0,0,0)"/></g><defs><filter id="sYCdqBsPEBFvI8FAbEFPZRSs2xFqRXnR" x="-200%" y="-200%" width="400%" height="400%" filterUnits="objectBoundingBox" color-interpolation-filters="sRGB"><feGaussianBlur xmlns="http://www.w3.org/2000/svg" stdDeviation="8.4801079"/></filter></defs><g opacity="0.3" filter="url(#sYCdqBsPEBFvI8FAbEFPZRSs2xFqRXnR)"><linearGradient id="_lgradient_223" x1="-0.0681490711308741" y1="0.03125" x2="0.9537210324437329" y2="1.0531201035746074" gradientTransform="matrix(176.005396,0,0,224,39.997303,16.5)" gradientUnits="userSpaceOnUse"><stop offset="0%" stop-opacity="0.58823532" style="stop-color:rgb(0,0,0)"/><stop offset="88%" stop-opacity="0" style="stop-color:rgb(0,0,0)"/><stop offset="100%" stop-opacity="1" style="stop-color:rgb(0,0,0)"/></linearGradient><path d=" M 78.924315 16.5 C 43.627592 16.5 39.82971 20.125416 40.002699 55.493531 L 40.002699 128.5 L 40.002699 201.50647 C 39.82971 236.874573 43.627592 240.500001 78.924315 240.500001 L 177.081083 240.500001 C 212.377806 240.500001 216.002699 236.875001 216.002699 201.50647 L 216.002699 128.5 L 216.002699 55.493531 C 216.002699 20.124997 212.377806 16.5 177.081083 16.5 L 78.924315 16.5 Z " id="blur" fill="url(#_lgradient_223)"/></g><linearGradient id="_lgradient_224" x1="0.5128975552295578" y1="1.191393749925565" x2="0.5128975552295579" y2="-0.21314917458906102" gradientTransform="matrix(176.005402,0,0,223.999979,39.9973,15.500025)" gradientUnits="userSpaceOnUse"><stop offset="0%" stop-opacity="1" style="stop-color:rgb(188,25,56)"/><stop offset="48.271722%" stop-opacity="1" style="stop-color:rgb(236,60,80)"/><stop offset="100%" stop-opacity="1" style="stop-color:rgb(218,22,54)"/></linearGradient><path d=" M 78.924321 15.500025 C 43.627596 15.500025 39.829708 19.125398 40.002695 54.49353 L 40.002695 127.500014 L 40.002695 200.506441 C 39.829708 235.874573 43.627596 239.500004 78.924321 239.500004 L 177.081083 239.500004 C 212.377805 239.500004 216.002702 235.875035 216.002702 200.506441 L 216.002702 127.500014 L 216.002702 54.49353 C 216.002702 19.124994 212.377805 15.500025 177.081083 15.500025 L 78.924321 15.500025 Z " id="shape" fill="url(#_lgradient_224)"/><g opacity="0.6"><path d=" M 78.924573 15.500025 C 43.627848 15.500025 39.829708 19.126032 40.002695 54.494165 L 40.002695 56.494138 C 39.829708 21.126005 43.627848 17.499998 78.924573 17.499998 L 177.080824 17.499998 C 212.377545 17.499998 216.002702 21.125601 216.002702 56.494138 L 216.002702 54.494165 C 216.002702 19.125571 212.377545 15.500025 177.080824 15.500025 L 78.924573 15.500025 Z " id="highlight" fill="rgb(255,255,255)"/></g><g opacity="0.1"><path d=" M 128.002691 15.500025 L 128.002691 239.500004 L 177.080824 239.500004 C 212.377531 239.500004 215.084421 235.863501 216.002702 200.506787 L 216.002702 127.500014 L 216.002702 54.493184 C 216.002702 19.124648 212.377531 15.500025 177.080824 15.500025 L 128.002691 15.500025 Z " id="right highlight" fill="rgb(255,255,255)"/></g><g opacity="0.2"><path d=" M 156.002703 239.500004 L 216.002702 179.500005 L 216.002702 201.983857 C 215.950394 235.97965 212.200019 239.500004 177.828601 239.500004 L 156.002703 239.500004 Z " id="clip" fill="rgb(255,255,255)"/></g></g><path d=" M 150.159627 72.242879 C 147.17057 71.906877 144.769522 71.903372 142.567974 72.333884 C 140.36644 72.764389 138.325901 73.814407 137.114875 75.133935 C 135.90385 76.453462 135.522339 77.751981 135.333346 78.381994 C 131.06326 86.768153 126.01616 95.094817 121.396073 102.22095 C 115.694466 110.670108 109.040843 120.508798 105.568775 128.443442 C 103.458233 133.291042 101.179693 139.132648 98.939646 145.219258 C 94.28106 157.977002 90.084482 170.724251 85.999905 183.541489 C 92.646532 184 92.646532 183.965005 97.77413 184 C 101.550697 177.066372 107.81232 170.475749 113.051919 165.659646 C 122.117091 157.385495 135.196838 148.925835 147.688576 147.035796 L 151.895654 146.409281 C 152.130163 133.340042 153.323685 119.192775 159.781298 107.73355 C 162.430848 102.969966 166.123419 99.18639 169.546486 94.860308 C 170.428499 94.149797 169.735493 93.309782 169.829996 92.536265 C 167.274949 79.848524 158.612277 73.551906 150.404631 72.274382 C 150.313625 72.288382 150.229617 72.25338 150.156115 72.242879 L 150.159627 72.242879 Z " fill-rule="evenodd" id="scribus" fill="rgb(243,255,255)"/></g><foreignObject requiredExtensions="http://ns.gravit.io/"><gravitDesigner:gravitElementRef xmlns:gravitDesigner="http://ns.gravit.io/" xlink:href="#kWt2q5WdSWn0CXQCj3TF17xbBhoOKLTm"/></foreignObject></switch><gravitDesigner:gravitGraphicSource xmlns:gravitDesigner="http://ns.gravit.io/" id="kWt2q5WdSWn0CXQCj3TF17xbBhoOKLTm" version="1"><![CDATA[eMKcw41aacKTwqPDlsKSw70rE8Oyw4R8ecOtNsO7w6LCiMKJGEDDrCDChAQSw4J2TMKww69iR8KIF8O+w6/Cg8OUWkrDvcOaw73CqsKfw73DhsKuCkVVXcKRwofDjFTCnsKTeS/DtcO3w4XDvyx+XFROFCw+LMO+c8Oxw6NPf8K/LkRNw5lXLyvClcOTw4XDs8KCwpfCl23DoC9+w6zCmj7DuMKwwqjCunbCvsOgwqcFw6xowrnCvsKpRMOHVMO/e8K+w6jCu8O5RUAmw6UJw5TDlHnDrEYRw5cqfMOweCtJwoTDhMOYw5HDgl4Jw6dLwoTDuRXDui3DuMKww7zDpcODTwtWVAvDncOUbA94QEXDmcKuwp3CkMOBw6AmX8OdMUBBb8KzNMKedMOrLMOCwqrDq2jDjXzDicOFwrXCnMOwcsOdw4lIJ3sLwrVBw4HDqAllwo7Cm33DlcKXXMKQIyPCssOrwqF8woRbw4DDqsOcw4jDmXXChMOKw6FPO8K7w7TDk2c0woxBR3DCsEvClSPCn8OXw4bDgBY8wodww4Z4wqhCw4fCg047w7cWw43DlcKFfcKoZMO3aMKuwonDmcKSfMKWPcKgOiDCpMO7w4EOwqvDvsOoMsKtwrvDqhIlPzJ7wqLDhMOIw4hfW8OJLcKaa2LDrsKWVyhcw4XDtMOkBcKKKsOMY1LCp3XCvyQbw4ARwoVuQ2zCscKtw6PCi8OaMnV9wrvCu3nChUdow7TCsMK8QDFzJHrDtRLCoMObw5Ngw5EwK3ciwpLCnSnDgXw2OcKWwpHCncOKwp3CpsOSGmbDncK8wrpaFsODM8OAw6tCw7zCkmM8agTDn8KeOnUQw6fDvFLChEnDgMKVbMOLw5XCpmdRd8OTw7tPwrvDrMOlYyYoLgV3HMKAe0pUwqrDqMKGwp8ANWkqPB/DosOewollw7YWw43DlcKyFsKfH8OzNTHDsUvDsS1zB1XCsBDDskEDDXbChnIYwo/CpRDCgFLDm0vDnMOBwq3CiFs0w5fDhMOcLX/DucOlw4PCognDgm7DrBY/HsO7PMK/w77DpRzCvcK4bC5FPsK/w5s1w6HDvAvDvBHDh0kUw4IRDANQwoTChBHDtAMwf39pw7kjwobCkSAGEgBOw6DDoMO8w73DoXsCw4M+woIkAmMYBGEwSMOiM8Osw5EpwoIbw4FAEMKDZ8K/w77Ct8Otw4pqw7Ejw7ARwpp/w4/CnXNww7HDoE7Dg8Okw5gpwp/ClsOew5IzTMOyfMO9eMOvwoJRw41xLMKYw69+wro4B8O8clkZZsKUw5DDicObw6DDlw/Cn8KMw5zCssOxwoPDpsOVw4w9LX7ChD/CksOXLxzDuMO0woVjwpc3csOvYsOSd8Odw7XCsiJfw7zCiMO8w6NtfsKdA8O6wq95w4VjRcKqwrfCt8OHCMKbw4g6Zh0TwpjDk1/Ctwl2w5wEw6shOSx+wp1twoMwFGctWWxkQw1swrLDmW/Cm2jDpBnDlMOxdcKZGMOpw4gewqgzw6jCrcKAw4XDncOhwq/Ci1DDp8KRw7rCicKiclbCvMOXwoHDnMOTbgfClSNKVsONw7LCrFQUXFpqSWTCrWvCiDBhwpTCt8KSQsKFH3o9wrpZXkrCisKiwpbCkcOeLAnDrlnCncKGwrnChioeGcOsXGhPwo7CpsKvw49FwownwoLChsOzDMOBw617w6hWUjDCi8KHegFRZcO2FsOqwoLDvcKsTsKhDcObw41hw5rDr8OyQRMmwpw2M2XClcK6G8KAw4zDh07DnMOUw6TDk8Kuwo5ow7hJw7fDoQAewqBuSxTCkGHCuTtNVjvCtMOxwocIZcOPe13Cj0nDqRbDjcOVwoVBHihWwr8Rw6TCmhjChsKiMsO9DmXCucK0UsK2wro4w58PGS1RPMKfw5FxYCZeIVnCjRXDrMOdLcKaT8KJwrlZXsKlcWPDkMKfQU3DqXnDpcKfOX/DjSgRBcO6w4nCtBLClMOOLGlBT2UkwrDDucKbVzTCtMOMHsKWwrcASx17CcKwXcKedx5IG8ORWcOzeMK3I8OrwoPCpcOiKF17KXxQw4/DuV0accOaOMOqcMORPwLCvELCnV5yXE4qwrccw6B8MGtAbQfCvmTCl2QAGUPDiMO3w6JaWk9PO8O8w6VjLsO2wpbCtTwUGcKJw7XDiC7Dh8KswrM0KAxcwpvCmMOhwohBwr7CtG7DkVwtfyB/eHzDjMKfEsOzUnzDrsOQZsKjwpzCrMOwIEjCskjDjcKjwrA8w6rCm8KpH8KXPUPDksKeccKLw6ZTYsOuw4XDt04RAj7CojduAsOQRXVQw6wqQl9Yw74eRGc2w6MwAAIQBkIQAcOCH8K+wofCgMKPw4jClcOhGMKMwoDDqMKsVcOIU8KHw5rDmMOxw4vDk1sVAsO/OBXDumfDigN+wrzDuw/CoCTCgMKiIMO0bsOleRHCuMKbCm3CulDDp1gnwovCj8OCw4ZJwo9aEHLCqMOjw7LDgy4wJMOYOcOCdxXCusOHNcO/GnjDnWtMbsOeN8OsdX1ebsOmW38kYRzCg2HDsiLDqhgOw57Dr8KlFiJfw7PCuSXDhCsVw6xbUSrDmmzDrSnDicOawovDlxFfSsKLX8O/VRVLw7QlwrrDpMK9YTrCiMKjJirCosOqNi5cRH7Di8OnwoZtDXfChsK9R8OFw7bDisO5wrDDhVMkwpEqKMKXOWUpwrjCuMKuwognAMKEwrLCmGvDqm9QMUVew4bDhMOBwrTDiTVXMcOmwrbDr8KWw5ApwqjCtsKDGBJ+GsO1w4VvwqkYSDUqHsODOyXDoUhHTMKCwqHDtHxTOkROXsKlbiTDnEfCqcO3wqjCmAgIwpLCviZVw5E0wo7Du8O0wqhLwoDCtjl3wrEzHHZjIRTDt8OBw7A9KsKmw7YJQMO0HsOrGThEwpJneMKXwo0FBC3DtShgS8KZwqlXw5/CoGIiw5jDu1gewpzDrMO4EE5hwovCqcKeIcOTw7JBaRXCgmXDqHTCvHnDtUnCtMKYw5PDl1QMw7XDusK+Q23DqcOEw4XDlsOqNDYKDMO6wodjB8OWwqvCkU0HX8O6LRXDk8OPwqjDhDUHw5zCs8KpDsOGV2kCw4k6cSRyCCvCmEhHwqBvUDHDscKcwqXDk8OoVcOlw5kLM8OWw4cdw7wowoJrEsOMw6rCnMKTwr3DvMOew7fDvmoqdmHDrVsNwoPDn8KtYcO/bmnDusOwVcKpVMK+w7vDu8OPwovDtsOnw4vDrRAEBREIRUkEJQjCgCA+w7zCvAjDh8O5wp3Dr8KBwo8ARsKACAnDoCAIAwTCjsKAwpfCt8OOP1/DogRgEELDpz8vF8O+NENVwpfDlcO5b2/DvsO5w7PDk8Klwp8Xw7NaecK1wpjDgSEYwoXCocOZwrHDm8OlH8Kvw7fDuk3Ci8OHwoXDoFfCrsK6w4jDosOPwovDpsOiLjp/SsO4RSwRGCcgECZ+fUzCiW3CqRPDmzLCtxDDuChLbsKsL8KtNMKwBMOZw6/CpUbDknfDvsOxX8ORZ8KQw7zCiMKjAArCo3PCjkgMQhHDrH43W2/Cl1bDq1PCqcOtw6kYw4hgwpvDrixNwoIvWcKiAgTCh8OGfMKvQsO/w6NmwrdxCMKiw4p9FDkkw5EhwqbDuU10XsKHw5Rqw5jDp8KDbHbDkH1qeMOPZlfDrsOyM3jCpsK3w7zCkRTCpcKNwrLDnUPCrcKUwoXDpFrCnRzCrsO2BnrDscO+w43DrhnCncKlQ8KoaQvClcOww7NUw4PDhXAYw5VxLHwoWcOyMgbDvsOWZsK3KlcpKh3Cm31MDMKawoPDssKIK8OxNCXDqsOlwrpvwp15bF3CvH/Cs1sNwqF+EsObaC3DuEg5wq5GwrAge8KowqPDkcKlwrjChcOVbkIWw6/Dn8OsQh0Vw4bDgX41McKHwpAwT8K0RAzCsjN/Z8KSwqJywqc9wrx4w79mV8OxEMKfGXs9NMOEwowEXcKzw53Ct8OLwp7DtAPDk1LDgUR2w4DDhcO7N8K7NmzCicKUbsKLwqpVw4RHRMOWT8Kkw5jDhkspPW0PwrtSwq3DpMOfw5rDrMOmwqp9OngSw6dYwrAXesK9w4FafmDDuxI2ADbCs2rClXHDscO+w40uw6cIaHlIw4dQwoQjw4fCsRXCscOIEsKjwqMkwqTDpMK0NQTDhcKLwr/DoGZ3HjLCq8OLwonDk8Ovwpsrw5/CiiUww4s/REIXw43DhCDDrMKuwpXCs8K8woEQQcOiKMKKQnMvQXHDoi7ClcOgw6waCMOPwqPDnMOcQmbCkcOFwr4qwprDoMKswojCs8KswqLDmFvCgXvDqiVCQHPDgBDDtMOWBMKCwrEPGMOwwoEAwr5kw7LCosKcEDjCg0Mfw6bDrsO1JcO1BD/CojjCgMOPLQ7DgnASIUgMe8OKZ3XChMOwY8OYwp7ClMOGdsKQccKnwrFYCVk1wpURXGPCpxvCun3DmWQXEMKXJVzDm3jDgMOAUcKoekAHZk4aw67Dh0dLw67DtMOWeMOfJsO7KhfDgU5Mwp7CpcKMw4nDisOOwrQdN8Oqw7hVOCRVHBN7OMOKd1jChsOZAsKSwrLCvyUzBsKuwrh4wr/DpMKRwoM1w6Q4JXHDtcOWw5zCuWtFX8KzZzcAw6lvwpAZe8ObbcKXwoo1GD5QFALCrMOVw7pWwrXDjsOpasKPwrPCucKFDsO1N8OIDBcMSGHDtGAqSDTDn8OwZ8KNwoISwoNTQCVTw41pCMKnb8KQGT85w68FwpbCgkp6wp02w6xBMMKgVWvDujQfTMOlUhHCgMOtV2XCpn/DicOxQBfCtCVHw7Y8w4RRJChTfVDDrsOIwpQGwr0DDcKuw63CkMO+w7MIPSTDt8OJw6ZBw67DjsKJFn/DsCHDlsOMw5APwrfDly9/ZsO5U8Oyw7bDs8OeXwp4OsKmPcOHaGs5wrMhBAYLwofDnirDq8Kpd8OCI33CvMKfMcKdw4gvw7Z+w6xtUyDDtzDCpsKxHRXChMOqSsKQwpfCqcKNwq7CmGNRw4vCjMKkw6McXsOedw5XRsK4w7pnwr3DnzMjwp99QCVnw47DksOsUSTDs8KYAMKswoktXGLCucOGw5zDtWkjw4XDoCAJb8OJwrUdwrgHw5Q1QFtYwr8Jw5DDmsKwHToKBVfCpsKsw5hyZcK7w68tTk0ZK8OIwqjCpmzDr2V8DcOwbnnCgcKaw5zCmVzDlQsUPcK5ecOswoLCmiooQ105WGPCkUfCocKwRXrCjxvCrsKKwprDt8K9HzXCk8KregN1ZUTDuxJgTGDCrMOGwok1KUDCihFlclZ0wq3CisO0w7HCmj7CrgDCnS3Dn8KSaybCsMOzw4LDk8OsJcOtImfDs0zDiUNyImTDtgrCl8OkwpHCoirCh8Ofa8OhNsKAwp0jw7LDksKLT8OPwrRfA3zDrcOFXsKmwp3DmcK6wpAMwoYew7EJwrQQFkBCw6PDrMKjwqp5RlNIwrt5dQ3DsMKvw5LCi8OjJMKKw7PDucOVwr0lLcO2wofCk8O2wp/CnMO8AMK3M8OnwrkZX8O3WCDDucK7Tn5iAxHCljJ3w7IIwqXCkVIuw47CrMKxw5vCsSrCv8OGYcKVSsK9w7hFG8K6wrbCm8Obwo5cO8KAwp3DlAjDicOvwqtlMsOtLcOheMKAw4/CksKdw4vDr8OTBsK0FcO5w4/DigHCplJxw6LDt8OlKcOSwrXDpcOOwqjDuMKTwo7CqcOqwqY4wp9QShDDusO0WkZXwrvDlyYkwp9gaMOcwp0lwqbCr1RBw6zDuSV3w4o8wrRGUMKMwrLDsjUaPsOLw6/DlQ7CgFvCicKCGC4bMsK9WsKFwqzCsMOtZcK7CDrDhMOvYMKmRcOuWgTCncK+w5jCvMKAwrfDjcKLA306w4bDocKsw5lsQiHDt8KCASROw5nDmCDCm2PDjsOkTMKIw58qecOdwo/CiR7ChV/CncKRw41Yw5JpPSPDrHUHwrFUawBOwoJpOiTCpynCq8OVwooVP8OtUsOoLS9LwohMGcK3JcOlfRMbw6c1Q8KVw4NSwp01YMOew5DCnMOdVcOzMiNXX8Onw6VcCsKxa8KGdCDCtMKZw4nCmcKawrwbw5oyw6UKIVcCw5XCqMOvGnZNw4xfwoXCl8ONwoXCk8O/w7FFdsO+ESfCsn8mO8ONwrBBwrfDjXLDg8KrPCogw6wEEwzCtcKEwpfDq8KCWjrCq8KQw6lfw5jDmcOQwq7ChAhgWDvDuUpXdQLCrcOXw6EKEDhJSAdWW8KGw58wwrjCvsOuwo/Dq8K9ZhsBUMKjGMObwqh8wpLDisOOw4pQwrg6wpfCiDFhUGvDs2ZwfcKhRn/DmMOYDUlTfsOJw6nDtcOGw7AHX2wLw49easO2woFXNhXDtzLCuDZPalx7w6vDq8OgKsKTEsKwwo/CtRXDj8O1CUjCs8KSwq/Dilk4Nm59w5psV8KSccOfw63Cj8Krw48Gw5cvcH9dwpjCgkB5w45GWXXCvMKwNsKWQMKZwpRRE0EewrNOXcOew7gGw65rO8OVXEbCpXTDgjZzY0xCwqBkw5Mxw68bPy00w63CtF19A8O3UUnDh0Zkwqkpw4sjC8KGZ8OIw4jDvQYsAcOLw5NUScOfwq3Ctn/CqcOBw5UtwrvCrizCvkzCuT9+worDvcO/wqUcczrCqsObwpJEOj/CgcOCw60Sc8KLalvDoj7Cs8KqVX9SMMOowoVyw6g+w6LCglAGJGXCnmwBwq4Ue8O6w6zDkMKlPiXCvlsHwpbDtj7DijF7M8O7wqxIw48gFMObMDfCrVMOP8K3O8K1wpHCqDPDnCg0w6pqTMOdwrjDnMKzwowScsKfPMOtw7JSTMO2G2rCi8OxDGUzbFzCmMKnfSXCicOZasO0SBTDg8Kiwqddwr1awr89w4oKQQjCiFZGBMKPBMKTeiLCvx95wrHCtMOywp7CkV1+WGXDt8KBw5PCt1N9cMK1RyXDm0cEw7/DjMO1w43CpMOVYsOawqzCrcOgTB9GwpdfBcODw6jDq8KEw6jDtU7CkBJBw7sYwoPDkcOww4nCrz/CucKFeHlSw73CqUXCjMOfwooYw7l0cA7CosK/wqvChsKLwroASljDnsOte33DkA9hwrLDt8KowojDhcKXw7NoN8OlK14JXmpYw4bCg8OUGcK8ZBN7GwRdwoEqQsOKZ8OOwq7Ct0HDk1HDvMKhwrluI8O/wr3DqXfCqipPPMKnS8OKw6PDt0Uyw49hw6dPwodedxdjYMOkDBPDpMKXMsOlwogSw4XCs8KlwqLClWwQwrXDsSA6w7Uhfh/DjXDCjsK1w7XDvMK8blnDtl7CqwhSUsKDUTjCsMOWMMK2w6gew7ZQbsK2R0bCnsKSdUtVw6jDvcKJwqEbeDvCvRXDpAZgw69HK8K6wq5XE8O7FsOKwqLClU0SC1JtYCrDijg8NMOFwqzCmjrCp8OJw6bCvcOxwrTCvsKVPcKZRMKGw54Yw6IVw6oTw7rCuMKlNMK9XFPCrXlDD8O2wpnCrEdiw5MBD3TDmFQIwqrCoSNAwqMSb8OfcMO2w5bDlV1QwphIwqUPw6jCmC3DrsO9wo9oFcK9wp/Ct3jDrANdPnnCkh7Ct0PCn8Odw5DDtcOickQNWUPDtkDCl2tTPh7Cu8OpwrjDpkvChcKbw4bCikzCoMOMw5NQcTgmesOQw6xvw6jCqcOtwokXw7TDgXzCoMO/w63CiCzDtcOyBwbCuMO7fsOQwqzCk27CtSZpPsOQwo3DiVlSwofDiMOawoAAXMOQw61Bw4jCtls3NFTCkMOzV2nCosOcwp8+DsKCwoHDq8KeIMKjT8OfFRJOw7UtcMKmw69PasONJlV1w73DjMOww4/Dp27Dm2ZLwpPDkxbCgMO0woLDiCPDkUwwAcObHcK1CcOcYcKwJWDDvg3CncKQQ1N3NsKnJSDDnsORZ1cFw50sVcOhw75Uw4/CkXhSw5/DjFsBw6DCgcKuw49qwqcDw4HDqMKvwrrDmlnDisODIMK7KX/CrAEvasOTwprDhsK4G8K6w6guGX3Cl8KgEsO7QMKPwoPDvsKsH0hGwrvCo8KTayjDlMO9DsOdPcORI8Kjw4dgccKUw5dSWsKkOjchw7MOJMOlAxnDiEnDkcOBw4DDqsKGw743TsKrw7QwNcK2T3TDvsO8wrdBw5cpan/Dj8KMGwTDmGPDocO2IMOgw5zCgCjDkRDCjMKDbcO7w4Mwd8KyA8OZwpEnZMK/A8K1w5U0MjfDtCvClMK3BnfDj8OMwqzCkMOjUsK3TMODwrzCoxPCncOiw6sGIMOrT8OfNzLCl2HDoCFiw5Ekw5/CngjDqSDDtMOswobDiU3CscK3w4PCkMKhw6/CnypHHjfCusK5VcOew7jCvhHChzkzw7xOM2/DqHMRw63DtcOySCvDpgPDncOTQntrw4PCpjvDisKowoctwpnDoiRiw4pUw4XCumhlwoPDisKwN3Qzwo1Ew73DuEPCrQA3wqhZO109BcOkN1DCrlYDwr0Sw5vCncOSeSApwqvDuMOow7TCu8KUwpPDl3XCucObwq3Dh8O7UxoXFV3CvcKmwpxHNcKgOyrDk8Kjw4bCosKeGQ3Cq0MubsOFEcOaFHXCusKqNEEDwqRGwql8w5vDpMKPIxLDnDl+w6wJT8Kvw7BhaT5iZsK5w6h4URDDssOOQgjDjgbCvcOMacO0wqkgw5XCrB1QesKYVsKWc8OgwrvCviZFw4wvw6BIEMKYw4PChsK3VsOuDcO9UFHCjcOeARnCnj14woLDgsOtSW/DuxjCucKjT8OeacOQw6tmwoTCnxx3SQgGwoJYwqAUVg7CrU3CtQzCiFLDoXnCk8KyVArCq8O0w6zChi7DocOswqBnDsKEPFnCuMOVw5jDtgJ2wrpzwrzCqDLDu3LCuzfDqjdUw4XCrMOZPDHCtMKnQDN3Kxtewqo7eMOiw6VqRcOMw5PDusO9PAcJw4tEw4/CmVULwrxVEFsfw47DlRXDrMKWw7fDj2XCusKuSB9kKBxSwrNoeyo3PGnCtsOraBIsw5vCicKcMMK9w7/Cm8KiXRxswr3DpHfCn8Kgw77DqUgRDMOBwrHDtB9tw6LDnsOiLlMkwobDgSQMw4MAwoIRwrcOw7fDuSrCiH0EAAjDgFHCjMOEwoDCuWvDjz3Dr3t0XsKCUQLChWDCkkBQwojDgMOePMOHw7HCmsOEw60vwqPDg8Ovwp8rEMO4H8KPeMO3bTLCscKWw63DinvCgcO2w5fDkjLDkHoVwqZjM0bCgH4Aw6vDs0vDh0/CvFTDryLCikpdCcOFwpbDsTDDhnQUw4LDu8KuUsK4wopuw7HDjRXDtcK7w4t/N8KjHcOnbwfDi8KCwrrDiEQmwpvDqcOWwp3DjcKBJsOswo3DhsOuXF/DvsO5acKeXSAUwrvDpMO/w5PDj8Oyw7IQw7rCkl3Dl8OLwr4wB8ONw6vDlwnDq8KRwpjCtRMFw78BLn7DvT/DqMOHESc=]]></gravitDesigner:gravitGraphicSource></svg>

<svg xmlns="http://www.w3.org/2000/svg" xmlns:xlink="http://www.w3.org/1999/xlink" style="isolation:isolate" width="256" height="256"><switch><g><path d="M78.924 15.5c-35.296 0-39.094 3.625-38.921 38.994v146.012c-.173 35.369 3.625 38.994 38.921 38.994h98.157c35.297 0 38.922-3.625 38.922-38.994V54.494c0-35.369-3.625-38.994-38.922-38.994H78.924z" fill="none" vector-effect="non-scaling-stroke" stroke-width="4" stroke="#000" opacity=".2"/><defs><filter id="a" x="-200%" y="-200%" width="400%" height="400%" filterUnits="objectBoundingBox" color-interpolation-filters="sRGB"><feGaussianBlur xmlns="http://www.w3.org/2000/svg" stdDeviation="2.12"/></filter></defs><path d="M78.924 16.5c-35.296 0-39.094 3.625-38.921 38.994v146.012c-.173 35.369 3.625 38.994 38.921 38.994h98.157c35.297 0 38.003-3.637 38.922-38.994V55.494c0-35.369-3.625-38.994-38.922-38.994H78.924z" opacity=".1" filter="url(#a)"/><defs><filter id="b" x="-200%" y="-200%" width="400%" height="400%" filterUnits="objectBoundingBox" color-interpolation-filters="sRGB"><feGaussianBlur xmlns="http://www.w3.org/2000/svg" stdDeviation="8.48"/></filter></defs><g opacity=".3" filter="url(#b)"><linearGradient id="c" x1="-.068" y1=".031" x2=".954" y2="1.053" gradientTransform="matrix(176.0054 0 0 224 39.997 16.5)" gradientUnits="userSpaceOnUse"><stop offset="0%" stop-opacity=".588"/><stop offset="88%" stop-opacity="0"/><stop offset="100%"/></linearGradient><path d="M78.924 16.5c-35.296 0-39.094 3.625-38.921 38.994v146.012c-.173 35.369 3.625 38.994 38.921 38.994h98.157c35.297 0 38.922-3.625 38.922-38.994V55.494c0-35.369-3.625-38.994-38.922-38.994H78.924z" fill="url(#c)"/></g><linearGradient id="d" x1=".513" y1="1.191" x2=".513" y2="-.213" gradientTransform="matrix(176.0054 0 0 223.99998 39.997 15.5)" gradientUnits="userSpaceOnUse"><stop offset="0%" stop-color="#bc1938"/><stop offset="48.272%" stop-color="#ec3c50"/><stop offset="100%" stop-color="#da1636"/></linearGradient><path d="M78.924 15.5c-35.296 0-39.094 3.625-38.921 38.994v146.012c-.173 35.369 3.625 38.994 38.921 38.994h98.157c35.297 0 38.922-3.625 38.922-38.994V54.494c0-35.369-3.625-38.994-38.922-38.994H78.924z" fill="url(#d)"/><path d="M78.925 15.5c-35.297 0-39.095 3.626-38.922 38.994v2C39.83 21.126 43.628 17.5 78.925 17.5h98.156c35.297 0 38.922 3.626 38.922 38.994v-2c0-35.368-3.625-38.994-38.922-38.994H78.925z" fill="#FFF" opacity=".6"/><path d="M128.003 15.5v224h49.078c35.297 0 38.003-3.636 38.922-38.993V54.493c0-35.368-3.625-38.993-38.922-38.993h-49.078z" fill="#FFF" opacity=".1"/><path d="M156.003 239.5l60-60v22.484c-.053 33.996-3.803 37.516-38.174 37.516h-21.826z" fill="#FFF" opacity=".2"/><path d="M150.16 72.243c-2.99-.336-5.39-.34-7.592.09-2.202.431-4.242 1.481-5.453 2.8-1.211 1.32-1.593 2.619-1.782 3.249-4.27 8.386-9.317 16.713-13.937 23.839-5.702 8.45-12.355 18.288-15.827 26.222-2.11 4.848-4.39 10.69-6.63 16.776-4.658 12.758-8.855 25.505-12.94 38.322 6.648.459 6.648.424 11.775.459 3.777-6.934 10.038-13.524 15.278-18.34 9.065-8.275 22.145-16.734 34.637-18.624l4.207-.627c.234-13.069 1.428-27.216 7.885-38.675 2.65-4.764 6.342-8.548 9.765-12.874.882-.71.19-1.55.284-2.324-2.555-12.687-11.218-18.984-19.425-20.262-.091.014-.175-.02-.249-.031h.004z" fill-rule="evenodd" fill="#F3FFFF"/></g><foreignObject requiredExtensions="http://ns.gravit.io/"> </foreignObject></switch> </svg>
